X:1
T:The Humours of Castlelyons" (jig)  0959
C:after Chief  F. O'Neill
L:1/8
M:4/4
I:linebreak $
K:C
V:1 treble 
V:1
 BEA |SOSOOO .!fermata!PMTuC MG3 BAG | d2 G BAG z2 | A2 B c2 d z2 | e^fe dBA z2 | G3 BAG z2 | %6
 d2 G BAG z2 |$ A2 B c2 A z2 | BGE (TE2 D) z2 :: gag gdB z2 | gag gdB z2 | A2 B c2 d z2 | %12
 e^fe dBd z2 |1$ gag gdB z2 | gag gdB z2 | A2 B cBA z2 | BGE (TE2 D) z2 :|2 G3 BAG z2 | %18
 d2 G BAG z2 |$ A2 B c2 A z2 | BGE (TE2 D) z2 |] %21
